img/flat.svg

<svg width="40" height="40" viewBox="0 0 40 40" fill="none" xmlns="http://www.w3.org/2000/svg">
<path d="M36.8085 2.55321H21.2766C20.924 2.55321 20.6383 2.83891 20.6383 3.19149V24.0576C20.6383 24.0598 20.6383 24.0622 20.6383 24.0645V31.702C20.6383 32.0546 20.924 32.3403 21.2766 32.3403C21.6291 32.3403 21.9148 32.0546 21.9148 31.702V24.5026C22.8707 24.094 23.6683 23.3873 24.1963 22.51C25.0533 23.956 26.6237 24.8936 28.4042 24.8936C30.1809 24.8936 31.7481 23.9603 32.6063 22.5198C33.3601 23.785 34.6609 24.6588 36.1701 24.8526V36.1702H21.9149V34.2552C21.9149 33.9027 21.6292 33.617 21.2766 33.617C20.9241 33.617 20.6384 33.9027 20.6384 34.2552V36.8084C20.6384 37.161 20.9241 37.4467 21.2766 37.4467H36.8085C37.1611 37.4467 37.4468 37.161 37.4468 36.8084V3.19149C37.4468 2.83891 37.1611 2.55321 36.8085 2.55321ZM36.1702 23.5613C34.6716 23.298 33.4826 22.1216 33.2368 20.5715C33.1876 20.2613 32.9203 20.0331 32.6064 20.0331C32.2925 20.0331 32.0251 20.2615 31.976 20.5715C31.6962 22.3362 30.1941 23.617 28.4043 23.617C26.6145 23.617 25.1123 22.3362 24.8326 20.5715C24.7834 20.2613 24.5161 20.0331 24.2022 20.0331C23.8883 20.0331 23.6209 20.2615 23.5718 20.5714C23.4076 21.6075 22.7867 22.5159 21.9149 23.0645V3.82977H36.1702V23.5613Z" fill="#FAFAFA"/>
<path d="M39.3617 0H0.638281C0.285781 0 0 0.285703 0 0.638281V39.3617C0 39.7143 0.285781 40 0.638281 40H39.3617C39.7143 40 40 39.7143 40 39.3617V0.638281C40 0.285703 39.7143 0 39.3617 0ZM38.7234 38.7234H1.27656V1.27656H38.7234V38.7234Z" fill="#FAFAFA"/>
<path d="M18.7234 2.55321H3.19147C2.83897 2.55321 2.55319 2.83891 2.55319 3.19149V36.8085C2.55319 37.1611 2.83897 37.4468 3.19147 37.4468H18.7234C19.0759 37.4468 19.3617 37.1611 19.3617 36.8085V24.0644C19.3617 24.0623 19.3617 24.06 19.3617 24.0579V3.19149C19.3617 2.83891 19.0759 2.55321 18.7234 2.55321ZM18.0851 36.1702H3.82975V24.8527C5.33897 24.6588 6.63983 23.7851 7.39358 22.5199C8.25179 23.9605 9.81905 24.8937 11.5957 24.8937C13.3764 24.8937 14.9467 23.9562 15.8036 22.5101C16.3316 23.3874 17.1292 24.094 18.0851 24.5027V36.1702ZM18.0851 23.0645C17.2134 22.5159 16.5925 21.6074 16.4283 20.5715C16.3791 20.2613 16.1118 20.0331 15.7978 20.0331C15.4838 20.0331 15.2166 20.2615 15.1673 20.5715C14.8876 22.3362 13.3855 23.617 11.5957 23.617C9.80585 23.617 8.30382 22.3362 8.02405 20.5715C7.97483 20.2613 7.70757 20.0331 7.39358 20.0331C7.0796 20.0331 6.81233 20.2615 6.76311 20.5715C6.51741 22.1216 5.32835 23.298 3.82975 23.5613V3.82977H18.0851V23.0645Z" fill="#FAFAFA"/>
</svg>

<svg width="40" height="40" fill="none" xmlns="http://www.w3.org/2000/svg"><path d="M36.809 2.553H21.277a.638.638 0 00-.639.638V31.702a.638.638 0 101.277 0v-7.2a4.94 4.94 0 002.281-1.992 4.87 4.87 0 004.208 2.384 4.87 4.87 0 004.202-2.374 4.861 4.861 0 003.564 2.333V36.17H21.915v-1.915a.638.638 0 10-1.277 0v2.553c0 .353.286.639.639.639h15.532a.638.638 0 00.638-.639V3.191a.638.638 0 00-.639-.638zm-.639 21.008a3.594 3.594 0 01-2.933-2.99.638.638 0 00-1.261 0 3.598 3.598 0 01-3.572 3.046 3.597 3.597 0 01-3.571-3.046.638.638 0 00-1.261 0 3.638 3.638 0 01-1.657 2.493V3.83H36.17V23.56z" fill="#FAFAFA"/><path d="M39.362 0H.638A.638.638 0 000 .638v38.724c0 .352.286.638.638.638h38.724a.638.638 0 00.638-.638V.638A.638.638 0 0039.362 0zm-.639 38.723H1.277V1.277h37.446v37.446z" fill="#FAFAFA"/><path d="M18.723 2.553H3.191a.638.638 0 00-.638.638v33.617c0 .353.286.639.638.639h15.532a.638.638 0 00.639-.639V24.065 3.191a.638.638 0 00-.639-.638zm-.638 33.617H3.83V24.853a4.862 4.862 0 003.564-2.333 4.87 4.87 0 004.202 2.374 4.87 4.87 0 004.208-2.384 4.94 4.94 0 002.281 1.993V36.17zm0-13.106a3.638 3.638 0 01-1.657-2.492.638.638 0 00-1.26 0 3.597 3.597 0 01-3.572 3.045 3.597 3.597 0 01-3.572-3.046.638.638 0 00-1.26 0 3.593 3.593 0 01-2.934 2.99V3.83h14.255v19.234z" fill="#FAFAFA"/></svg>
